X:389
T: Queen Mary's Lamentation
N: O'Farrell's Pocket Companion v.4 (Sky ed. p.167)
N: "Scotch"
M: 3/4
L: 1/8
Q: 120
R: waltz
K: G
GB| d4 BG| A2B2c2| {d}c2B2G2| d4 ed|
d<BB<G A2| G4 :|
d>e| =f4 {e}dB| A2A3B/c/| c2B2GB| d4ed|
d<BB<G A2| G4 de| =f4 {e}dB| A2A3B/c/|
c2B2G>B| d4BG |D2 c3B| B2A2GB| d4 BG|
e2f2g2| Hg3 {ag}Hf3| d4ed| dBBGA2| G4||
